app/assets/images/Contenido/Telegram.svg

<svg fill="none" height="80" viewBox="0 0 80 80" width="80" xmlns="http://www.w3.org/2000/svg"><path d="m40 0c-22.08 0-40 17.92-40 40s17.92 40 40 40 40-17.92 40-40-17.92-40-40-40zm18.56 27.2c-.6 6.32-3.2 21.68-4.52 28.76-.56 3-1.68 4-2.72 4.12-2.32.2-4.08-1.52-6.32-3-3.52-2.32-5.52-3.76-8.92-6-3.96-2.6-1.4-4.04.88-6.36.6-.6 10.84-9.92 11.04-10.76.0278-.1272.0241-.2593-.0108-.3848-.0348-.1255-.0998-.2405-.1892-.3352-.24-.2-.56-.12-.84-.08-.36.08-5.96 3.8-16.88 11.16-1.6 1.08-3.04 1.64-4.32 1.6-1.44-.04-4.16-.8-6.2-1.48-2.52-.8-4.48-1.24-4.32-2.64.08-.72 1.08-1.44 2.96-2.2 11.68-5.08 19.44-8.44 23.32-10.04 11.12-4.64 13.4-5.44 14.92-5.44.32 0 1.08.08 1.56.48.4.32.52.76.56 1.08-.04.24.04.96 0 1.52z" fill="#1e8edf"/></svg>

<svg width="80" height="80" viewBox="0 0 80 80" fill="none" xmlns="http://www.w3.org/2000/svg">
<path d="M40 0C17.92 0 0 17.92 0 40C0 62.08 17.92 80 40 80C62.08 80 80 62.08 80 40C80 17.92 62.08 0 40 0ZM58.56 27.2C57.96 33.52 55.36 48.88 54.04 55.96C53.48 58.96 52.36 59.96 51.32 60.08C49 60.28 47.24 58.56 45 57.08C41.48 54.76 39.48 53.32 36.08 51.08C32.12 48.48 34.68 47.04 36.96 44.72C37.56 44.12 47.8 34.8 48 33.96C48.0278 33.8328 48.0241 33.7007 47.9892 33.5752C47.9544 33.4497 47.8894 33.3347 47.8 33.24C47.56 33.04 47.24 33.12 46.96 33.16C46.6 33.24 41 36.96 30.08 44.32C28.48 45.4 27.04 45.96 25.76 45.92C24.32 45.88 21.6 45.12 19.56 44.44C17.04 43.64 15.08 43.2 15.24 41.8C15.32 41.08 16.32 40.36 18.2 39.6C29.88 34.52 37.64 31.16 41.52 29.56C52.64 24.92 54.92 24.12 56.44 24.12C56.76 24.12 57.52 24.2 58 24.6C58.4 24.92 58.52 25.36 58.56 25.68C58.52 25.92 58.6 26.64 58.56 27.2Z" fill="#1E8EDF"/>
</svg>
